X:214
T:Inver Bank
S:Jim Bevan
R:jig
M:6/8
L:1/8
K:D
fe/f/f edc | BA/B/B BAG | FE/F/F BAG | FE/F/F Bde |
fe/f/f edc | BA/B/B BAG | FE/F/F BAG |1 fga age :|2 FGA AGE |:
FGF BFD | FGF BFG | FGF cFG | FcF dcA |
FGF BFD | FGF BFG | FGF cFG |1 FGA AGE :|2 fga age |]
